src/dsmComponents/Icons/clear-24px.svg

<?xml version="1.0" encoding="UTF-8"?>
<svg width="24px" height="24px" viewBox="0 0 24 24" version="1.1" xmlns="http://www.w3.org/2000/svg" xmlns:xlink="http://www.w3.org/1999/xlink">
    <!-- Generator: Sketch 60.1 (88133) - https://sketch.com -->
    <title>clear-24px</title>
    <desc>Created with Sketch.</desc>
    <defs>
        <path d="M12,0 C5.372583,0 0,5.372583 0,12 C0,18.627417 5.372583,24 12,24 C18.627417,24 24,18.627417 24,12 C23.9807773,5.38056166 18.6194383,0.0192227178 12,0 Z M16.243,16.243 C15.8525347,16.6334653 15.2194653,16.6334653 14.829,16.243 L12,13.414 L12,13.414 L9.171,16.243 C8.78053468,16.6334653 8.14746532,16.6334653 7.757,16.243 C7.36653468,15.8525347 7.36653468,15.2194653 7.757,14.829 L10.586,12 L10.586,12 L7.757,9.171 C7.36653468,8.78053468 7.36653468,8.14746532 7.757,7.757 C8.14746532,7.36653468 8.78053468,7.36653468 9.171,7.757 L12,10.586 L12,10.586 L14.829,7.757 C15.2194653,7.36653468 15.8525347,7.36653468 16.243,7.757 C16.6334653,8.14746532 16.6334653,8.78053468 16.243,9.171 L13.414,12 L13.414,12 L16.243,14.829 C16.6334653,15.2194653 16.6334653,15.8525347 16.243,16.243 Z" id="path-1"></path>
    </defs>
    <g id="Final" stroke="none" stroke-width="1" fill="none" fill-rule="evenodd">
        <g id="All-Nucleo-Icons" transform="translate(-608.000000, -7956.000000)">
            <g id="Solo/Nucleo/24px/clear-24px" transform="translate(608.000000, 7956.000000)">
                <g id="Colour/Default-Colour">
                    <mask id="mask-2" fill="white">
                        <use xlink:href="#path-1"></use>
                    </mask>
                    <g id="Mask" fill-rule="nonzero"></g>
                    <g id="colour/neutral/chia" mask="url(#mask-2)" fill="#737373">
                        <g transform="translate(-20.000000, -20.000000)" id="Colour">
                            <rect x="0" y="0" width="64" height="64"></rect>
                        </g>
                    </g>
                </g>
            </g>
        </g>
    </g>
</svg>

<svg width="24" height="24" xmlns="http://www.w3.org/2000/svg" xmlns:xlink="http://www.w3.org/1999/xlink"><defs><path d="M12 0C5.373 0 0 5.373 0 12s5.373 12 12 12 12-5.373 12-12C23.98 5.38 18.62.02 12 0zm4.243 16.243a1 1 0 01-1.414 0L12 13.414l-2.829 2.829a1 1 0 01-1.414-1.414L10.586 12 7.757 9.171a1 1 0 111.414-1.414L12 10.586l2.829-2.829a1 1 0 111.414 1.414L13.414 12l2.829 2.829a1 1 0 010 1.414z" id="clear-24px_svg__a"/></defs><use fill="#737373" xlink:href="#clear-24px_svg__a" fill-rule="evenodd"/></svg>
